X: 28183
T: Mrs Stewart Of Grandtully
R: strathspey
M: 4/4
K: Amixolydian
E/|A2 c>A c/d/e c>A|G>A B>c d/c/B/A/ B2|A2 c>A c/d/e c>B|1 A<ae<a c<A A>:|
[2 A/a3/2e<a c<A A>e||a>ea>e g/f/e a>e|g<a e>d B>AG>e|
a>ea>e g/f/e a>e|g<a e>d c/B/A A>e|a>ea>e g/f/e a>e|
g<a e>d B>AG>e|a/g/f g>e f>de>d|c<ae<a c<A A>||

